X:1
T:Stewball
C:Folksong, d'après un recueil de 1829.  Fichier ABC par Bernard Loffet
L:1/8
Q:324
M:3/4
K:G
 z4 [DG,]D | [G2G,2] [A2D,2] [B2G,2] | [G2G,2] G,2 G,2 | G,2 G,2 G,2 | G,2 G,2 [GG,]G | \
 [G2E,2] [A2A,2] [B2E,2] | [A2A,2] A,2 A,2 | A,2 A,2 A,2 | A,2 A,2 [AA,]A | [A2A,2] [B2A,2] [c2A,2] | \
 [B2D,2] [A2D,2] D,2 | D,2 D,2 D,2 | D,2 D,2 [FD,]F | [F2D,2] [G2G,2] [A2D,2] | [G2G,2] G,2 G,2 | \
 G,2 G,2 G,2 | G,2 G,4 | \
Z:Created with TablEdit http://www.tabledit.com/ by Bernard Loffet
